X: 1985
T: Willy Wagtail
C:Composed by Suzette Watkins, Birdwood, SA
B: australian traditional tunes wiki
M:2/4
L:1/8
R: Reel
Q: 1/4=100
K:G
V:1 
|:D|"G"GB/c/ dB|"D7"c/B/A/G/ FD|"Am"EG c/B/A/G/|"D7"A2-AD|
"G"GB/c/ dB|"C"c/B/A/G/ "D7"F/A/D|"Am"EC "D7"DE/F/|"G"G2-G:|
|:d|"Em"ge "D"fg|"C"ec/e/ "D"dD|"G"GA/B/ "Am"c/B/A/G/|"D7"A2-AB/c/|
"G"dD BD|"C"c/B/A/G/ "D7"F/A/D|"Am"EC "D7"DE/F/|"G"G2-G:|
% abcbook-tune_id 6342d5bebdc480e503d4eb79


% abcbook-boost 0
% abcbook-tablature 
% abcbook-transpose 
% abcbook-lastupdated 1665324492493
% abcbook-soundfonts 
% abcbook-repeats 1
% NFF Book 2018

